svg/fluentui-system-icons/ic_fluent_archive_multiple_16_regular.svg

<svg width="16" height="16" viewBox="0 0 16 16" fill="none" xmlns="http://www.w3.org/2000/svg">
<path d="M6 6C5.72386 6 5.5 6.22386 5.5 6.5C5.5 6.77614 5.72386 7 6 7H8C8.27614 7 8.5 6.77614 8.5 6.5C8.5 6.22386 8.27614 6 8 6H6ZM2 1C1.44772 1 1 1.44772 1 2V4C1 4.55228 1.44772 5 2 5L2 11C2 12.1046 2.89543 13 4 13H10C11.1046 13 12 12.1046 12 11V5C12.5523 5 13 4.55228 13 4V2C13 1.44772 12.5523 1 12 1H2ZM3 11V5H11V11C11 11.5523 10.5523 12 10 12H4C3.44772 12 3 11.5523 3 11ZM2 2H12V4H2V2ZM14 6.49997C14 5.84686 13.5826 5.29125 13 5.08533V12C13 13.1045 12.1046 14 11 14H4.26758C4.61339 14.5978 5.25973 15 6.00001 15H11C12.6569 15 14 13.6568 14 12V6.49997Z" fill="#212121"/>
</svg>

<svg xmlns="http://www.w3.org/2000/svg" width="16" height="16"><path d="M6 6a.5.5 0 0 0 0 1h2a.5.5 0 0 0 0-1H6ZM2 1a1 1 0 0 0-1 1v2a1 1 0 0 0 1 1v6a2 2 0 0 0 2 2h6a2 2 0 0 0 2-2V5a1 1 0 0 0 1-1V2a1 1 0 0 0-1-1H2Zm1 10V5h8v6a1 1 0 0 1-1 1H4a1 1 0 0 1-1-1ZM2 2h10v2H2V2Zm12 4.5a1.5 1.5 0 0 0-1-1.415V12a2 2 0 0 1-2 2H4.268A2 2 0 0 0 6 15h5a3 3 0 0 0 3-3V6.5Z"/></svg>
